icons/src/svg/eye_inactive.svg

<svg width="32" height="32" viewBox="0 0 32 32" fill="none" xmlns="http://www.w3.org/2000/svg">
<path d="M26.2195 21.9768C28.2371 20.048 29.4431 17.833 29.9487 16.3162C30.0171 16.111 30.0171 15.889 29.9487 15.6838C28.8672 12.4392 24.5809 6 16 6C14.1519 6 12.503 6.29868 11.0424 6.79981L12.6525 8.40982C13.6718 8.14882 14.7863 8 16 8C23.1452 8 26.8536 13.1578 27.9381 16C27.45 17.2791 26.4306 19.0271 24.8056 20.563L26.2195 21.9768Z" fill="#0D0F13"/>
<path d="M20.9503 16.7077C20.9831 16.4765 21 16.2402 21 16C21 13.2386 18.7614 11 16 11C15.7598 11 15.5235 11.0169 15.2923 11.0497L20.9503 16.7077Z" fill="#0D0F13"/>
<path d="M11.0497 15.293L16.7077 20.951C16.4765 20.9838 16.2402 21.0007 16 21.0007C13.2386 21.0007 11 18.7621 11 16.0007C11 15.7605 11.0169 15.5242 11.0497 15.293Z" fill="#0D0F13"/>
<path d="M7.19439 11.437C5.56943 12.9729 4.54996 14.7209 4.06189 16C5.14642 18.8422 8.85485 24 16 24C17.2137 24 18.3282 23.8512 19.3475 23.5902L20.9576 25.2002C19.497 25.7013 17.8481 26 16 26C7.41905 26 3.13285 19.5608 2.05132 16.3162C1.98289 16.111 1.98289 15.889 2.05132 15.6838C2.55692 14.167 3.76287 11.952 5.78053 10.0232L7.19439 11.437Z" fill="#0D0F13"/>
<path fill-rule="evenodd" clip-rule="evenodd" d="M2.29289 2.29289C2.68342 1.90237 3.31658 1.90237 3.70711 2.29289L29.7071 28.2929C30.0976 28.6834 30.0976 29.3166 29.7071 29.7071C29.3166 30.0976 28.6834 30.0976 28.2929 29.7071L2.29289 3.70711C1.90237 3.31658 1.90237 2.68342 2.29289 2.29289Z" fill="#0D0F13"/>
</svg>

<?xml version="1.0" encoding="utf-8"?>
<!-- Generator: Adobe Illustrator 26.0.1, SVG Export Plug-In . SVG Version: 6.00 Build 0)  -->
<svg version="1.1" id="Layer_1" xmlns="http://www.w3.org/2000/svg" xmlns:xlink="http://www.w3.org/1999/xlink" x="0px" y="0px"
	 viewBox="0 0 32 32" style="enable-background:new 0 0 32 32;" xml:space="preserve">
<style type="text/css">
	.st0{fill:#0D0F13;}
</style>
<path class="st0" d="M26.2,22c2-1.9,3.2-4.1,3.7-5.7c0.1-0.2,0.1-0.4,0-0.6C28.9,12.4,24.6,6,16,6c-1.8,0-3.5,0.3-5,0.8l1.6,1.6
	C13.7,8.1,14.8,8,16,8c7.1,0,10.9,5.2,11.9,8c-0.5,1.3-1.5,3-3.1,4.6L26.2,22z M21,16.7c0-0.2,0-0.5,0-0.7c0-2.8-2.2-5-5-5
	c-0.2,0-0.5,0-0.7,0L21,16.7z M11,15.3l5.7,5.7c-0.2,0-0.5,0-0.7,0c-2.8,0-5-2.2-5-5C11,15.8,11,15.5,11,15.3z M7.2,11.4
	C5.6,13,4.5,14.7,4.1,16c1.1,2.8,4.8,8,11.9,8c1.2,0,2.3-0.1,3.3-0.4l1.6,1.6c-1.5,0.5-3.1,0.8-5,0.8c-8.6,0-12.9-6.4-13.9-9.7
	c-0.1-0.2-0.1-0.4,0-0.6C2.6,14.2,3.8,12,5.8,10L7.2,11.4z M2.3,2.3c0.4-0.4,1-0.4,1.4,0l26,26c0.4,0.4,0.4,1,0,1.4
	c-0.4,0.4-1,0.4-1.4,0l-26-26C1.9,3.3,1.9,2.7,2.3,2.3z"/>
</svg>
